assets/img/list.svg

<svg xmlns="http://www.w3.org/2000/svg" viewBox="0 0 508 508" enable-background="new 0 0 508 508"><path d="M397.1 57h-375c-11.7 0-21.3 9.6-21.3 21.4v408.3c0 11.8 9.5 21.3 21.3 21.3h375c11.8 0 21.3-9.5 21.3-21.3v-408.3c0-11.8-9.5-21.4-21.3-21.4z" fill="#FFD15C"/><path fill="#fff" d="M34.7 90.9h349.9v383.2h-349.9z"/><path d="M303 36.6h-56.7c0-20.2-16.4-36.6-36.6-36.6s-36.7 16.4-36.7 36.6h-56.7c-11.8 0-21.3 9.5-21.3 21.3v50.1h229.3v-50.1c0-11.7-9.6-21.3-21.3-21.3zm-79.8 14.3c-20.2 15-42.8-7.6-27.9-27.9l.6-.6c20.2-14.9 42.8 7.6 27.9 27.9-.1.2-.3.4-.6.6z" fill="#4CDBC4"/><path d="M183.8 249.2h-113.8v-113.8h113.8v113.8zm-91.3-22.5h68.7v-68.7h-68.7v68.7z" fill="#FF7058"/><path d="M183.8 408.5h-113.8v-113.8h113.8v113.8zm-91.3-22.6h68.7v-68.7h-68.7v68.7z" fill="#84DBFF"/><path fill="#40596B" d="M117.3 214.9l-18.1-18.2 7.8-7.8 10.3 10.4 29.5-29.5 7.8 7.8z"/><path d="M399.3 312.8c-3.7-3.7-3.7-9.7 0-13.4l73.2-73.2-30.6-30.6c-3.7-3.7-3.7-9.7 0-13.4s9.7-3.7 13.4 0l37.3 37.3c3.7 3.7 3.7 9.7 0 13.4l-79.9 79.9c-3.7 3.7-9.7 3.7-13.4 0z" fill="#334A5E"/><path d="M498.1 142.7c-12-12-31.6-12-43.7 0l-230.6 230.6-12.4 56.1 56.1-12.4 230.6-230.6c6-6 9-13.9 9.1-21.8-.1-8-3.1-15.9-9.1-21.9z" fill="#CDD6E0"/><g fill="#40596B"><path d="M486.684 197.817l-86.265 86.265-43.698-43.698 86.265-86.265zM267.5 417l-56.1 12.4 12.4-56.1z"/></g></svg>

<?xml version="1.0" encoding="iso-8859-1"?>
<!-- Generator: Adobe Illustrator 19.0.0, SVG Export Plug-In . SVG Version: 6.00 Build 0)  -->
<svg version="1.1" id="Layer_1" xmlns="http://www.w3.org/2000/svg" xmlns:xlink="http://www.w3.org/1999/xlink" x="0px" y="0px"
	 viewBox="0 0 508 508" style="enable-background:new 0 0 508 508;" xml:space="preserve">
<path style="fill:#FFD15C;" d="M397.1,57h-375C10.4,57,0.8,66.6,0.8,78.4v408.3c0,11.8,9.5,21.3,21.3,21.3h375
	c11.8,0,21.3-9.5,21.3-21.3V78.4C418.4,66.6,408.9,57,397.1,57z"/>
<rect x="34.7" y="90.9" style="fill:#FFFFFF;" width="349.9" height="383.2"/>
<path style="fill:#4CDBC4;" d="M303,36.6h-56.7c0-20.2-16.4-36.6-36.6-36.6S173,16.4,173,36.6h-56.7c-11.8,0-21.3,9.5-21.3,21.3V108
	h229.3V57.9C324.3,46.2,314.7,36.6,303,36.6z M223.2,50.9c-20.2,15-42.8-7.6-27.9-27.9c0.2-0.2,0.4-0.4,0.6-0.6
	c20.2-14.9,42.8,7.6,27.9,27.9C223.7,50.5,223.5,50.7,223.2,50.9z"/>
<path style="fill:#FF7058;" d="M183.8,249.2H70V135.4h113.8V249.2z M92.5,226.7h68.7V158H92.5V226.7z"/>
<path style="fill:#84DBFF;" d="M183.8,408.5H70V294.7h113.8V408.5z M92.5,385.9h68.7v-68.7H92.5V385.9z"/>
<polygon style="fill:#40596B;" points="117.3,214.9 99.2,196.7 107,188.9 117.3,199.3 146.8,169.8 154.6,177.6 "/>
<path style="fill:#334A5E;" d="M399.3,312.8c-3.7-3.7-3.7-9.7,0-13.4l73.2-73.2l-30.6-30.6c-3.7-3.7-3.7-9.7,0-13.4s9.7-3.7,13.4,0
	l37.3,37.3c3.7,3.7,3.7,9.7,0,13.4l-79.9,79.9C409,316.5,403,316.5,399.3,312.8z"/>
<path style="fill:#CDD6E0;" d="M498.1,142.7c-12-12-31.6-12-43.7,0L223.8,373.3l-12.4,56.1l56.1-12.4l230.6-230.6
	c6-6,9-13.9,9.1-21.8C507.1,156.6,504.1,148.7,498.1,142.7z"/>
<g>
	
		<rect x="360.699" y="188.202" transform="matrix(-0.7071 0.7071 -0.7071 -0.7071 874.8118 75.8441)" style="fill:#40596B;" width="121.999" height="61.799"/>
	<polygon style="fill:#40596B;" points="267.5,417 211.4,429.4 223.8,373.3 	"/>
</g>
<g>
</g>
<g>
</g>
<g>
</g>
<g>
</g>
<g>
</g>
<g>
</g>
<g>
</g>
<g>
</g>
<g>
</g>
<g>
</g>
<g>
</g>
<g>
</g>
<g>
</g>
<g>
</g>
<g>
</g>
</svg>
